src/icons/editor/glyph/RowMoveUpIcon.svg

<svg width="24" height="24" viewBox="0 0 24 24" fill="none" xmlns="http://www.w3.org/2000/svg">
<path fill-rule="evenodd" clip-rule="evenodd" d="M3 19C3 20.1046 3.89543 21 5 21L19 21C20.1046 21 21 20.1046 21 19L21 15C21 13.8954 20.1046 13 19 13L5 13C3.89543 13 3 13.8954 3 15L3 19ZM16.2427 7.24264L12 3L12 3.00007L10.5858 4.41421L7.75732 7.24271L9.17153 8.65692L11 6.82846L11 11.0001L13 11.0001L13 6.82839L14.8285 8.65685L16.2427 7.24264Z" fill="currentColor"/>
</svg>

<svg xmlns="http://www.w3.org/2000/svg" width="24" height="24" fill="currentColor" viewBox="0 0 24 24">
  <path fill-rule="evenodd" d="M3 19a2 2 0 0 0 2 2h14a2 2 0 0 0 2-2v-4a2 2 0 0 0-2-2H5a2 2 0 0 0-2 2v4ZM16.243 7.243 12 3l-1.414 1.414-2.829 2.829 1.415 1.414L11 6.828V11h2V6.828l1.829 1.829 1.414-1.414Z" clip-rule="evenodd"/>
</svg>
